X: 1
T: The Rollicking Boys Of Tandragee
R: jig
M: 6/8
L: 1/8
K: Emin
BAB EEE|BAB d^cd|BAB DDE|FED FGA|
BAB EEE|BAB def|edB AFA|BEE E2A:|
|:Bee edB|def afd|edd dBA|Bdd d^cd|
Bee edB|def afd|edB AFA|BEE E3:||


Tune 1392	Setting 14757

